X: 17959
T: Huckleberry, The
R: hornpipe
M: 4/4
K: Amajor
(3efg|:aecf ecAd|cAGB Acea|fdAc dAF_G|ABA_G FE D2|
EGBe ceeg|bgab (3gbg (3efg|afed cABc|1 Ae (3cec A2 (3efg:|2 Ae (3cec A2 ag||
fdAd fagf|ecAc e2dc|BGEG BdcB|(3ABA (3Bcd e2ag|
fdAd fagf|ecAc e2dc|BGEG BdcB|1 Ae (3cec A2 ag:|2 Ae (3cec A2(3DCB,||
A,CEA FAAc|ecde (3cec AF|DFAA dfad'|ba fad2z2|
EGBe ceeg|bgab (3gbg (3efg|afed cABc|1 Ae (3cec A2(3DCB,:|2 Ae (3cec A4||

